packages/orbit-components/src/icons/svg/city.svg

<!--character:194:550:2011-->
  <svg width="24" height="24" viewBox="0 0 24 24" >
<path   d="M13.0417 4.38338H10.9583C10.7282 4.38338 10.5417 4.19683 10.5417 3.96672V3.13338C10.5417 2.67314 10.9148 2.30005 11.375 2.30005H12.625C13.0852 2.30005 13.4583 2.67314 13.4583 3.13338V3.96672C13.4583 4.19683 13.2718 4.38338 13.0417 4.38338ZM20.9583 19.8251C20.9583 19.9401 21.0516 20.0334 21.1667 20.0334C21.6269 20.0334 22 20.4065 22 20.8667C22 21.327 21.6269 21.7 21.1667 21.7H2.83333C2.3731 21.7 2 21.327 2 20.8667C2 20.4065 2.3731 20.0334 2.83333 20.0334C2.94839 20.0334 3.04167 19.9401 3.04167 19.8251V11.1584C3.04167 10.6981 3.41476 10.325 3.875 10.325H5.125V9.70005C5.125 9.35487 5.40482 9.07505 5.75 9.07505C6.09518 9.07505 6.375 9.35487 6.375 9.70005V10.325C6.83524 10.325 7.20833 10.6981 7.20833 11.1584V19.6167C7.20833 19.8468 7.39488 20.0334 7.625 20.0334H8.04167C8.27179 20.0334 8.45833 19.8468 8.45833 19.6167V5.86672C8.45833 5.40648 8.83143 5.03338 9.29167 5.03338H14.7083C15.1686 5.03338 15.5417 5.40648 15.5417 5.86672V19.6167C15.5417 19.8468 15.7282 20.0334 15.9583 20.0334H16.375C16.6051 20.0334 16.7917 19.8468 16.7917 19.6167V13.1584C16.7917 12.6981 17.1648 12.325 17.625 12.325V11.7C17.625 11.3549 17.9048 11.075 18.25 11.075C18.5952 11.075 18.875 11.3549 18.875 11.7V12.325H20.125C20.5852 12.325 20.9583 12.6981 20.9583 13.1584V19.8251ZM13.6667 7.11671H10.3333C9.98815 7.11671 9.70833 7.39653 9.70833 7.74171C9.70833 8.08689 9.98815 8.36671 10.3333 8.36671H13.6667C14.0118 8.36671 14.2917 8.08689 14.2917 7.74171C14.2917 7.39653 14.0118 7.11671 13.6667 7.11671ZM10.3333 10.4501H13.6667C14.0118 10.4501 14.2917 10.7299 14.2917 11.0751C14.2917 11.4202 14.0118 11.7001 13.6667 11.7001H10.3333C9.98815 11.7001 9.70833 11.4202 9.70833 11.0751C9.70833 10.7299 9.98815 10.4501 10.3333 10.4501ZM13.6667 13.7834H10.3333C9.98815 13.7834 9.70833 14.0632 9.70833 14.4084C9.70833 14.7536 9.98815 15.0334 10.3333 15.0334H13.6667C14.0118 15.0334 14.2917 14.7536 14.2917 14.4084C14.2917 14.0632 14.0118 13.7834 13.6667 13.7834ZM13.875 18.3667H10.125C9.77982 18.3667 9.5 18.0869 9.5 17.7417C9.5 17.3965 9.77982 17.1167 10.125 17.1167H13.875C14.2202 17.1167 14.5 17.3965 14.5 17.7417C14.5 18.0869 14.2202 18.3667 13.875 18.3667Z" />
</svg>

<!--character:194:550:2011-->
<svg width="24" height="24" viewBox="0 0 24 24" xmlns="http://www.w3.org/2000/svg"><path d="M10.9583 4.3833a.4167.4167 0 0 1-.4166-.4166v-.8334A.8333.8333 0 0 1 11.375 2.3h1.25a.8333.8333 0 0 1 .8333.8333v.8334a.4167.4167 0 0 1-.4166.4166h-2.0834zm10.2084 15.65a.8333.8333 0 0 1 0 1.6667H2.8333a.8333.8333 0 1 1 0-1.6667.2083.2083 0 0 0 .2084-.2083v-8.6667a.8333.8333 0 0 1 .8333-.8333h1.25V9.7a.625.625 0 1 1 1.25 0v.625a.8333.8333 0 0 1 .8333.8333v8.4584c0 .23.1866.4166.4167.4166h.4167a.4167.4167 0 0 0 .4166-.4166v-13.75a.8333.8333 0 0 1 .8334-.8334h5.4166a.8333.8333 0 0 1 .8334.8334v13.75c0 .23.1865.4166.4166.4166h.4167a.4167.4167 0 0 0 .4167-.4166v-6.4584a.8333.8333 0 0 1 .8333-.8333V11.7a.625.625 0 1 1 1.25 0v.625h1.25a.8333.8333 0 0 1 .8333.8333v6.6667c0 .115.0933.2083.2084.2083zM10.3333 7.1167a.625.625 0 0 0 0 1.25h3.3334a.625.625 0 0 0 0-1.25h-3.3334zm0 3.3333a.625.625 0 0 0 0 1.25h3.3334a.625.625 0 0 0 0-1.25h-3.3334zm0 3.3333a.625.625 0 0 0 0 1.25h3.3334a.625.625 0 0 0 0-1.25h-3.3334zm3.5417 4.5834a.625.625 0 0 0 0-1.25h-3.75a.625.625 0 1 0 0 1.25h3.75z"/></svg>
